X: 13292
T: Flagon, The
R: reel
M: 4/4
K: Gmixolydian
|:BG (3GGG G2cA|BG (3GGG Bdgd|BG (3GGG G2cB|(3ABc Fc AFcA:|
|:g2dB GBdB|g2dB gba^f|g2dB GBdB|e<f cf AFcA:|
|:(3Bcd gd (3Bcd gd|(3Bcd gd BGGB|(3A_Bc fc (3A_Bc fc|(3A_Bc fc AFFA|
(3=Bcd gd (3Bcd gd|(3Bcd gd BGGe|fgag fefd|cAfc AFcA:|

